X:1
T:Title
%%score { ( 1 3 ) | ( 2 4 5 ) }
L:1/8
M:6/8
K:Ab
V:1 treble nm="Grand Piano"
V:3 treble 
V:2 bass 
V:4 bass 
V:5 bass 
V:1
 z3 z2[Q:1/4=90] [CE] | [CE]2 [CF] [CF]2 [CG] | [CG]2 [CA] [CA]2 [DB] | [Ec]2 [Ec] [Ed]2 [Ec] | %4
[M:5/8] [DB]3 [DF]2 |[M:1/8] [FA] |[M:3/4] [FA]2 G G2 F | A2 G G2 F | z2 z .G3 | %9
[M:5/8] [CE]-[CE]- [CE]3 |[M:1/8] [CE] |[M:3/4] [CE]2 [CF] [CF]2 [CG] | [CG]2 [CA] [CA]2 [DB] | %13
 c2 c d2 c |[M:5/8] [Fe]3 [Fd]2 |[M:1/8] F |[M:3/4] d2 c c2 E | c2 B B2 [=DF] | A2 G F2 G | %19
[M:5/8] [CA]-[CA]- [CA]3 |[M:1/8] [CE] |[M:3/4] C2 Cc- [Ec]A | AG G G2 E | E2 Ed- [Gd][Gc] | %24
[M:5/8] BAc c2 |[M:1/8] E |[M:3/4] .[CE]2 A, [Ec]2 [EA] | [EG][DF] [DF] [Fd]2 [Fd] | cE E B2 G | %29
[M:5/8] [CA]-[CA]- [CA]3 |] %30
V:2
 z3 z2 [A,,A,] | [A,,A,]2 [A,,A,] [A,,A,]2 [A,,E,] | [A,,E,]2 [A,,E,] [A,,E,]2 [A,,E,] | %3
 [A,,A,]2 [A,,A,] [A,,A,]2 [A,,A,] |[M:5/8] [D,F,]3 [D,B,]2 |[M:1/8] [D,B,] | %6
[M:3/4] [E,B,]2 [E,B,E] [E,B,E]2 [E,B,D] | [E,B,F]2 [E,B,E] [E,B,E]2 [E,B,D] | %8
 [E,B,F]2 [E,B,E] [E,D]2 [E,G,D] |[M:5/8] [A,,A,]-[A,,A,]- [A,,A,]3 |[M:1/8] [A,,A,] | %11
[M:3/4] [A,,A,]2 [A,,A,] [A,,A,]2 [A,,E,] | [A,,E,]2 [A,,E,] [A,,E,]2 [A,,E,] | %13
 [A,E]2 [A,E] [A,F]2[K:bass] [A,E] |[M:5/8] [D,A,]3 [D,A,]2 |[M:1/8] [D,A,] | %16
[M:3/4] [E,G,E]2 [E,A,E] [E,A,E]2 [E,A,C] | [F,A,=D]2 [F,A,D] [F,A,D]2 [B,,B,] | %18
 [E,B,D]2 [E,B,D] [E,B,D]2 [E,D] |[M:5/8] [A,,E,]-[A,,E,]- [A,,E,]3 |[M:1/8] [A,,A,] | %21
[M:3/4] [A,,A,]2 [A,,A,][A,,A,] [A,,A,][A,E] | [E,B,D][E,B,D] [E,B,D] [E,B,D]2 [E,G,] | %23
 [E,G,]2 [E,G,][E,B,] [E,B,][E,E] |[M:5/8][K:treble] [A,DA][A,C][A,EA] [A,EA]2 |[M:1/8] [A,C] | %26
[M:3/4][K:bass] z .C3 z2 | [D,A,][D,A,] [D,A,] [D,A,]2 [D,A,] | %28
 [E,A,E][E,A,C] [E,A,C] [E,G,D]2 [E,B,D] |[M:5/8] [A,,A,]-[A,,A,]- [A,,A,]3 |] %30
V:3
 x6 | x6 | x6 | x6 |[M:5/8] x5 |[M:1/8] x |[M:3/4] x6 | x6 | A2 .G2 F,F |[M:5/8] x5 |[M:1/8] x | %11
[M:3/4] x6 | x6 | x6 |[M:5/8] x5 |[M:1/8] x |[M:3/4] x6 | x6 | x6 |[M:5/8] x5 |[M:1/8] x | %21
[M:3/4] E3 E z2 | x6 | z2 z G z2 |[M:5/8] x5 |[M:1/8] x |[M:3/4] z .E3 z2 | x6 | x6 |[M:5/8] x5 |] %30
V:4
 x6 | x6 | x6 | x6 |[M:5/8] x5 |[M:1/8] x |[M:3/4] x6 | x6 | x6 |[M:5/8] x5 |[M:1/8] x | %11
[M:3/4] x6 | x6 | x5[K:bass] x |[M:5/8] x5 |[M:1/8] x |[M:3/4] x6 | x6 | x6 |[M:5/8] x5 | %20
[M:1/8] x |[M:3/4] x6 | x6 | x6 |[M:5/8][K:treble] x5 |[M:1/8] x | %26
[M:3/4][K:bass] z2 A,, [A,,A,]2 [C,A,] | x6 | x6 |[M:5/8] x5 |] %30
V:5
 x6 | x6 | x6 | x6 |[M:5/8] x5 |[M:1/8] x |[M:3/4] x6 | x6 | x6 |[M:5/8] x5 |[M:1/8] x | %11
[M:3/4] x6 | x6 | x5[K:bass] x |[M:5/8] x5 |[M:1/8] x |[M:3/4] x6 | x6 | x6 |[M:5/8] x5 | %20
[M:1/8] x |[M:3/4] x6 | x6 | x6 |[M:5/8][K:treble] x5 |[M:1/8] x |[M:3/4][K:bass] [A,,A,]2 z2 z2 | %27
 x6 | x6 |[M:5/8] x5 |] %30

